mimes/24/font-x-generic.svg

<?xml version="1.0" encoding="UTF-8" standalone="no"?>
<!-- Created with Inkscape (http://www.inkscape.org/) -->

<svg
   xmlns:svg="http://www.w3.org/2000/svg"
   xmlns="http://www.w3.org/2000/svg"
   xmlns:xlink="http://www.w3.org/1999/xlink"
   version="1.0"
   width="24"
   height="24"
   id="svg2">
  <defs
     id="defs4">
    <radialGradient
       cx="605.71429"
       cy="486.64789"
       r="117.14286"
       fx="605.71429"
       fy="486.64789"
       id="radialGradient4536"
       xlink:href="#linearGradient5060"
       gradientUnits="userSpaceOnUse"
       gradientTransform="matrix(-2.774389,0,0,1.969706,112.7623,-872.8854)" />
    <linearGradient
       id="linearGradient5060">
      <stop
         id="stop5062"
         style="stop-color:black;stop-opacity:1"
         offset="0" />
      <stop
         id="stop5064"
         style="stop-color:black;stop-opacity:0"
         offset="1" />
    </linearGradient>
    <radialGradient
       cx="605.71429"
       cy="486.64789"
       r="117.14286"
       fx="605.71429"
       fy="486.64789"
       id="radialGradient4534"
       xlink:href="#linearGradient5060"
       gradientUnits="userSpaceOnUse"
       gradientTransform="matrix(2.774389,0,0,1.969706,-1891.633,-872.8854)" />
    <linearGradient
       id="linearGradient5048">
      <stop
         id="stop5050"
         style="stop-color:black;stop-opacity:0"
         offset="0" />
      <stop
         id="stop5056"
         style="stop-color:black;stop-opacity:1"
         offset="0.5" />
      <stop
         id="stop5052"
         style="stop-color:black;stop-opacity:0"
         offset="1" />
    </linearGradient>
    <linearGradient
       x1="302.85715"
       y1="366.64789"
       x2="302.85715"
       y2="609.50507"
       id="linearGradient4532"
       xlink:href="#linearGradient5048"
       gradientUnits="userSpaceOnUse"
       gradientTransform="matrix(2.774389,0,0,1.969706,-1892.179,-872.8854)" />
    <linearGradient
       id="linearGradient3931">
      <stop
         id="stop3933"
         style="stop-color:#8d8f8a;stop-opacity:1"
         offset="0" />
      <stop
         id="stop3935"
         style="stop-color:#cbcbcb;stop-opacity:1"
         offset="1" />
    </linearGradient>
    <linearGradient
       x1="-51.786404"
       y1="50.786446"
       x2="-51.786404"
       y2="2.9062471"
       id="linearGradient4547"
       xlink:href="#linearGradient3931"
       gradientUnits="userSpaceOnUse"
       gradientTransform="matrix(0.4383743,0,0,0.4575444,31.223522,-0.7786496)" />
    <linearGradient
       id="linearGradient3600">
      <stop
         id="stop3602"
         style="stop-color:#f4f4f4;stop-opacity:1"
         offset="0" />
      <stop
         id="stop3604"
         style="stop-color:#dbdbdb;stop-opacity:1"
         offset="1" />
    </linearGradient>
    <linearGradient
       x1="25.132275"
       y1="6.7287393"
       x2="25.132275"
       y2="47.013336"
       id="linearGradient4545"
       xlink:href="#linearGradient3600"
       gradientUnits="userSpaceOnUse"
       gradientTransform="matrix(0.5428805,0,0,0.4889072,-1.0291327,-0.2337718)" />
    <linearGradient
       id="linearGradient4559">
      <stop
         id="stop4561"
         style="stop-color:#cacaca;stop-opacity:1"
         offset="0" />
      <stop
         id="stop4563"
         style="stop-color:#949492;stop-opacity:1"
         offset="1" />
    </linearGradient>
    <linearGradient
       x1="17.288921"
       y1="2.184907"
       x2="15.179585"
       y2="5.8214641"
       id="linearGradient4565"
       xlink:href="#linearGradient4559"
       gradientUnits="userSpaceOnUse" />
    <linearGradient
       id="linearGradient8589">
      <stop
         id="stop8591"
         style="stop-color:#fefefe;stop-opacity:1"
         offset="0" />
      <stop
         id="stop8593"
         style="stop-color:#cbcbcb;stop-opacity:1"
         offset="1" />
    </linearGradient>
    <linearGradient
       x1="32.892288"
       y1="8.0590115"
       x2="36.358372"
       y2="5.4565363"
       id="linearGradient4543"
       xlink:href="#linearGradient8589"
       gradientUnits="userSpaceOnUse"
       gradientTransform="matrix(0.541631,0,0,0.5202974,-0.9402078,-0.3018562)" />
    <linearGradient
       id="linearGradient3932">
      <stop
         id="stop3968"
         style="stop-color:#828282;stop-opacity:1"
         offset="0" />
      <stop
         id="stop3936"
         style="stop-color:#434343;stop-opacity:1"
         offset="1" />
    </linearGradient>
    <linearGradient
       x1="-22.539846"
       y1="11.109024"
       x2="-22.539846"
       y2="46.263954"
       id="linearGradient6349"
       xlink:href="#linearGradient3932"
       gradientUnits="userSpaceOnUse"
       gradientTransform="matrix(0.4724498,0,0,0.5532525,16.350669,-7.130177)" />
  </defs>
  <g
     id="layer1">
    <g
       transform="matrix(0.5459263,0,0,0.5168524,-0.9657323,-0.5781821)"
       id="g3490"
       style="stroke-width:1.88256383;stroke-miterlimit:4;stroke-dasharray:none;display:inline">
      <g
         transform="matrix(0.02165152,0,0,0.01485743,43.0076,42.68539)"
         id="g5022"
         style="stroke-width:104.96237946;stroke-miterlimit:4;stroke-dasharray:none;display:inline">
        <rect
           width="1339.6335"
           height="478.35718"
           x="-1559.2523"
           y="-150.69685"
           id="rect4173"
           style="opacity:0.40206185;fill:url(#linearGradient4532);fill-opacity:1;fill-rule:nonzero;stroke:none;stroke-width:104.96237946;marker:none;visibility:visible;display:inline;overflow:visible" />
        <path
           d="m -219.61876,-150.68038 c 0,0 0,478.33079 0,478.33079 142.874166,0.90045 345.40022,-107.16966 345.40014,-239.196175 0,-132.026537 -159.436816,-239.134595 -345.40014,-239.134615 z"
           id="path5058"
           style="opacity:0.40206185;fill:url(#radialGradient4534);fill-opacity:1;fill-rule:nonzero;stroke:none;stroke-width:104.96237946;marker:none;visibility:visible;display:inline;overflow:visible" />
        <path
           d="m -1559.2523,-150.68038 c 0,0 0,478.33079 0,478.33079 -142.8742,0.90045 -345.4002,-107.16966 -345.4002,-239.196175 0,-132.026537 159.4368,-239.134595 345.4002,-239.134615 z"
           id="path5018"
           style="opacity:0.40206185;fill:url(#radialGradient4536);fill-opacity:1;fill-rule:nonzero;stroke:none;stroke-width:104.96237946;marker:none;visibility:visible;display:inline;overflow:visible" />
      </g>
    </g>
    <path
       d="m 2.4995695,0.49956995 c 4.3540581,0 8.7081225,0 13.0621825,0 0.7638,0.23730535 4.867172,2.94084495 5.938678,4.81278185 0,5.7293572 0,11.4587192 0,17.1880792 -6.333619,0 -12.6672431,0 -19.0008605,0 0,-7.333622 0,-14.6672393 0,-22.00086105 z"
       id="rect2594"
       style="fill:url(#linearGradient4545);fill-opacity:1;stroke:url(#linearGradient4547);stroke-width:0.99913895;stroke-linecap:butt;stroke-linejoin:round;stroke-miterlimit:4;stroke-opacity:1;stroke-dasharray:none;stroke-dashoffset:0;display:inline" />
    <path
       d="m 15.5,0.5 c 0,2.262965 0,5 0,5 0,0 4.653658,0 6,0 0,-0.836587 -4.820468,-4.98571761 -6,-5 z"
       id="path12038"
       style="fill:url(#linearGradient4543);fill-opacity:1;fill-rule:evenodd;stroke:url(#linearGradient4565);stroke-width:1;stroke-linecap:butt;stroke-linejoin:round;stroke-miterlimit:4;stroke-opacity:1;stroke-dasharray:none;display:inline" />
    <path
       d="M 19,18.449917 C 18.276873,18.489156 17.462343,18.193119 17.426781,17.356365 16.982441,14.963058 16.619989,12.5545 16.209522,10.154888 15.869712,8.1084328 15.529902,6.0619823 15.190094,4.0155333 14.903122,3.9627605 14.689245,4.0386998 14.598974,4.3322717 12.231145,8.2899246 9.8907558,12.264278 7.5039819,16.210408 6.9231609,17.03724 6.3994283,18.112701 5.3391177,18.382067 4.9450161,18.245319 4.9349268,18.905311 5.1036626,18.98895 c 1.4347855,0 2.8695644,0 4.3043433,0 0.079017,-0.434228 -0.039433,-0.690398 -0.5464509,-0.588376 -0.9846948,0.156209 -0.8808245,-1.000245 -0.5104311,-1.569795 0.4486163,-0.899075 0.976498,-1.756518 1.4602782,-2.637118 1.6434969,0 3.2869829,0 4.9304719,0 0.160399,1.083294 0.413755,2.155862 0.493049,3.248633 0.203919,0.892546 -0.796441,0.974899 -1.422051,0.995323 -0.184133,-0.03894 -0.245946,0.657628 0.03321,0.551333 1.717979,0 3.435943,0 5.153922,0 0,-0.179679 0,-0.359353 0,-0.539033 z M 10.282043,13.11614 c 1.120562,-1.942662 2.241119,-3.8853156 3.361682,-5.8279785 0.328698,1.9426629 0.657394,3.8853165 0.986096,5.8279785 -1.449259,0 -2.898519,0 -4.347778,0 z"
       id="text2044"
       style="font-size:46.60050201px;font-style:italic;font-variant:normal;font-weight:normal;font-stretch:normal;text-align:start;line-height:125%;writing-mode:lr-tb;text-anchor:start;fill:url(#linearGradient6349);fill-opacity:1;stroke:none;display:inline;font-family:Nimbus Roman No9 L" />
  </g>
</svg>

<?xml version="1.0" encoding="UTF-8" standalone="no"?>
<!-- Created with Inkscape (http://www.inkscape.org/) -->
<svg
   xmlns:dc="http://purl.org/dc/elements/1.1/"
   xmlns:cc="http://creativecommons.org/ns#"
   xmlns:rdf="http://www.w3.org/1999/02/22-rdf-syntax-ns#"
   xmlns:svg="http://www.w3.org/2000/svg"
   xmlns="http://www.w3.org/2000/svg"
   xmlns:xlink="http://www.w3.org/1999/xlink"
   xmlns:sodipodi="http://sodipodi.sourceforge.net/DTD/sodipodi-0.dtd"
   xmlns:inkscape="http://www.inkscape.org/namespaces/inkscape"
   width="24"
   height="24"
   id="svg2"
   sodipodi:version="0.32"
   inkscape:version="0.46"
   version="1.0"
   sodipodi:docname="font-x-generic.svg"
   inkscape:output_extension="org.inkscape.output.svg.inkscape">
  <defs
     id="defs4">
    <radialGradient
       inkscape:collect="always"
       xlink:href="#linearGradient5060"
       id="radialGradient4536"
       gradientUnits="userSpaceOnUse"
       gradientTransform="matrix(-2.774389,0,0,1.969706,112.7623,-872.8854)"
       cx="605.71429"
       cy="486.64789"
       fx="605.71429"
       fy="486.64789"
       r="117.14286" />
    <linearGradient
       inkscape:collect="always"
       id="linearGradient5060">
      <stop
         style="stop-color:black;stop-opacity:1;"
         offset="0"
         id="stop5062" />
      <stop
         style="stop-color:black;stop-opacity:0;"
         offset="1"
         id="stop5064" />
    </linearGradient>
    <radialGradient
       inkscape:collect="always"
       xlink:href="#linearGradient5060"
       id="radialGradient4534"
       gradientUnits="userSpaceOnUse"
       gradientTransform="matrix(2.774389,0,0,1.969706,-1891.633,-872.8854)"
       cx="605.71429"
       cy="486.64789"
       fx="605.71429"
       fy="486.64789"
       r="117.14286" />
    <linearGradient
       id="linearGradient5048">
      <stop
         style="stop-color:black;stop-opacity:0;"
         offset="0"
         id="stop5050" />
      <stop
         id="stop5056"
         offset="0.5"
         style="stop-color:black;stop-opacity:1;" />
      <stop
         style="stop-color:black;stop-opacity:0;"
         offset="1"
         id="stop5052" />
    </linearGradient>
    <linearGradient
       inkscape:collect="always"
       xlink:href="#linearGradient5048"
       id="linearGradient4532"
       gradientUnits="userSpaceOnUse"
       gradientTransform="matrix(2.774389,0,0,1.969706,-1892.179,-872.8854)"
       x1="302.85715"
       y1="366.64789"
       x2="302.85715"
       y2="609.50507" />
    <linearGradient
       id="linearGradient3931">
      <stop
         id="stop3933"
         offset="0"
         style="stop-color:#8d8f8a;stop-opacity:1" />
      <stop
         id="stop3935"
         offset="1"
         style="stop-color:#cbcbcb;stop-opacity:1;" />
    </linearGradient>
    <linearGradient
       inkscape:collect="always"
       xlink:href="#linearGradient3931"
       id="linearGradient4547"
       gradientUnits="userSpaceOnUse"
       gradientTransform="matrix(0.4383743,0,0,0.4575444,31.223522,-0.7786496)"
       x1="-51.786404"
       y1="50.786446"
       x2="-51.786404"
       y2="2.9062471" />
    <linearGradient
       id="linearGradient3600"
       inkscape:collect="always">
      <stop
         id="stop3602"
         offset="0"
         style="stop-color:#f4f4f4;stop-opacity:1" />
      <stop
         id="stop3604"
         offset="1"
         style="stop-color:#dbdbdb;stop-opacity:1" />
    </linearGradient>
    <linearGradient
       inkscape:collect="always"
       xlink:href="#linearGradient3600"
       id="linearGradient4545"
       gradientUnits="userSpaceOnUse"
       gradientTransform="matrix(0.5428805,0,0,0.4889072,-1.0291327,-0.2337718)"
       x1="25.132275"
       y1="6.7287393"
       x2="25.132275"
       y2="47.013336" />
    <linearGradient
       id="linearGradient4559">
      <stop
         style="stop-color:#cacaca;stop-opacity:1"
         offset="0"
         id="stop4561" />
      <stop
         style="stop-color:#949492;stop-opacity:1;"
         offset="1"
         id="stop4563" />
    </linearGradient>
    <linearGradient
       inkscape:collect="always"
       xlink:href="#linearGradient4559"
       id="linearGradient4565"
       x1="17.288921"
       y1="2.184907"
       x2="15.179585"
       y2="5.8214641"
       gradientUnits="userSpaceOnUse" />
    <linearGradient
       id="linearGradient8589">
      <stop
         style="stop-color:#fefefe;stop-opacity:1"
         offset="0"
         id="stop8591" />
      <stop
         style="stop-color:#cbcbcb;stop-opacity:1;"
         offset="1"
         id="stop8593" />
    </linearGradient>
    <linearGradient
       inkscape:collect="always"
       xlink:href="#linearGradient8589"
       id="linearGradient4543"
       gradientUnits="userSpaceOnUse"
       gradientTransform="matrix(0.541631,0,0,0.5202974,-0.9402078,-0.3018562)"
       x1="32.892288"
       y1="8.0590115"
       x2="36.358372"
       y2="5.4565363" />
    <linearGradient
       id="linearGradient3932">
      <stop
         id="stop3968"
         offset="0"
         style="stop-color:#828282;stop-opacity:1;" />
      <stop
         id="stop3936"
         offset="1"
         style="stop-color:#434343;stop-opacity:1;" />
    </linearGradient>
    <linearGradient
       inkscape:collect="always"
       xlink:href="#linearGradient3932"
       id="linearGradient6349"
       gradientUnits="userSpaceOnUse"
       gradientTransform="matrix(0.4724498,0,0,0.5532525,16.350669,-7.130177)"
       x1="-22.539846"
       y1="11.109024"
       x2="-22.539846"
       y2="46.263954" />
  </defs>
  <sodipodi:namedview
     id="base"
     pagecolor="#ffffff"
     bordercolor="#666666"
     borderopacity="1.0"
     gridtolerance="10000"
     guidetolerance="10"
     objecttolerance="10"
     inkscape:pageopacity="0.0"
     inkscape:pageshadow="2"
     inkscape:zoom="10.375"
     inkscape:cx="12"
     inkscape:cy="12"
     inkscape:document-units="px"
     inkscape:current-layer="layer1"
     showgrid="false"
     inkscape:window-width="640"
     inkscape:window-height="720"
     inkscape:window-x="800"
     inkscape:window-y="24" />
  <metadata
     id="metadata7">
    <rdf:RDF>
      <cc:Work
         rdf:about="">
        <dc:format>image/svg+xml</dc:format>
        <dc:type
           rdf:resource="http://purl.org/dc/dcmitype/StillImage" />
      </cc:Work>
    </rdf:RDF>
  </metadata>
  <g
     inkscape:label="Layer 1"
     inkscape:groupmode="layer"
     id="layer1">
    <g
       style="display:inline;stroke-width:1.88256383000000005;stroke-miterlimit:4;stroke-dasharray:none"
       inkscape:label="Shadow"
       id="g3490"
       transform="matrix(0.5459263,0,0,0.5168524,-0.9657323,-0.5781821)">
      <g
         style="stroke-width:104.96237946;stroke-miterlimit:4;stroke-dasharray:none;display:inline"
         id="g5022"
         transform="matrix(2.165152e-2,0,0,1.485743e-2,43.0076,42.68539)">
        <rect
           y="-150.69685"
           x="-1559.2523"
           height="478.35718"
           width="1339.6335"
           id="rect4173"
           style="opacity:0.40206185;fill:url(#linearGradient4532);fill-opacity:1;fill-rule:nonzero;stroke:none;stroke-width:104.96237946;stroke-linecap:round;stroke-linejoin:miter;marker:none;marker-start:none;marker-mid:none;marker-end:none;stroke-miterlimit:4;stroke-dasharray:none;stroke-dashoffset:0;stroke-opacity:1;visibility:visible;display:inline;overflow:visible" />
        <path
           sodipodi:nodetypes="cccc"
           id="path5058"
           d="M -219.61876,-150.68038 C -219.61876,-150.68038 -219.61876,327.65041 -219.61876,327.65041 C -76.744594,328.55086 125.78146,220.48075 125.78138,88.454235 C 125.78138,-43.572302 -33.655436,-150.68036 -219.61876,-150.68038 z"
           style="opacity:0.40206185;fill:url(#radialGradient4534);fill-opacity:1;fill-rule:nonzero;stroke:none;stroke-width:104.96237946;stroke-linecap:round;stroke-linejoin:miter;marker:none;marker-start:none;marker-mid:none;marker-end:none;stroke-miterlimit:4;stroke-dasharray:none;stroke-dashoffset:0;stroke-opacity:1;visibility:visible;display:inline;overflow:visible" />
        <path
           style="opacity:0.40206185;fill:url(#radialGradient4536);fill-opacity:1;fill-rule:nonzero;stroke:none;stroke-width:104.96237946;stroke-linecap:round;stroke-linejoin:miter;marker:none;marker-start:none;marker-mid:none;marker-end:none;stroke-miterlimit:4;stroke-dasharray:none;stroke-dashoffset:0;stroke-opacity:1;visibility:visible;display:inline;overflow:visible"
           d="M -1559.2523,-150.68038 C -1559.2523,-150.68038 -1559.2523,327.65041 -1559.2523,327.65041 C -1702.1265,328.55086 -1904.6525,220.48075 -1904.6525,88.454235 C -1904.6525,-43.572302 -1745.2157,-150.68036 -1559.2523,-150.68038 z"
           id="path5018"
           sodipodi:nodetypes="cccc" />
      </g>
    </g>
    <path
       style="display:inline;fill:url(#linearGradient4545);fill-opacity:1;stroke:url(#linearGradient4547);stroke-width:0.99913894999999997;stroke-linecap:butt;stroke-linejoin:round;stroke-miterlimit:4;stroke-dasharray:none;stroke-dashoffset:0;stroke-opacity:1"
       d="M 2.4995695,0.49956995 C 6.8536276,0.49956995 11.207692,0.49956995 15.561752,0.49956995 C 16.325552,0.7368753 20.428924,3.4404149 21.50043,5.3123518 C 21.50043,11.041709 21.50043,16.771071 21.50043,22.500431 C 15.166811,22.500431 8.8331869,22.500431 2.4995695,22.500431 C 2.4995695,15.166809 2.4995695,7.8331917 2.4995695,0.49956995 z"
       id="rect2594"
       sodipodi:nodetypes="cccccc" />
    <path
       style="display:inline;fill:url(#linearGradient4543);fill-opacity:1;fill-rule:evenodd;stroke:url(#linearGradient4565);stroke-width:1;stroke-linecap:butt;stroke-linejoin:round;stroke-miterlimit:4;stroke-dasharray:none;stroke-opacity:1"
       d="M 15.5,0.5 C 15.5,2.762965 15.5,5.5 15.5,5.5 C 15.5,5.5 20.153658,5.5 21.5,5.5 C 21.5,4.663413 16.679532,0.51428239 15.5,0.5 z"
       id="path12038"
       sodipodi:nodetypes="cccc" />
    <path
       id="text2044"
       d="M 19,18.449917 C 18.276873,18.489156 17.462343,18.193119 17.426781,17.356365 C 16.982441,14.963058 16.619989,12.5545 16.209522,10.154888 C 15.869712,8.1084328 15.529902,6.0619823 15.190094,4.0155333 C 14.903122,3.9627605 14.689245,4.0386998 14.598974,4.3322717 C 12.231145,8.2899246 9.8907558,12.264278 7.5039819,16.210408 C 6.9231609,17.03724 6.3994283,18.112701 5.3391177,18.382067 C 4.9450161,18.245319 4.9349268,18.905311 5.1036626,18.98895 C 6.5384481,18.98895 7.973227,18.98895 9.4080059,18.98895 C 9.4870228,18.554722 9.3685724,18.298552 8.861555,18.400574 C 7.8768602,18.556783 7.9807305,17.400329 8.3511239,16.830779 C 8.7997402,15.931704 9.3276219,15.074261 9.8114021,14.193661 C 11.454899,14.193661 13.098385,14.193661 14.741874,14.193661 C 14.902273,15.276955 15.155629,16.349523 15.234923,17.442294 C 15.438842,18.33484 14.438482,18.417193 13.812872,18.437617 C 13.628739,18.398674 13.566926,19.095245 13.846078,18.98895 C 15.564057,18.98895 17.282021,18.98895 19,18.98895 C 19,18.809271 19,18.629597 19,18.449917 z M 10.282043,13.11614 C 11.402605,11.173478 12.523162,9.2308244 13.643725,7.2881615 C 13.972423,9.2308244 14.301119,11.173478 14.629821,13.11614 C 13.180562,13.11614 11.731302,13.11614 10.282043,13.11614 z"
       style="display:inline;font-size:46.60050200999999959px;font-style:italic;font-variant:normal;font-weight:normal;font-stretch:normal;text-align:start;line-height:125%;writing-mode:lr-tb;text-anchor:start;fill:url(#linearGradient6349);fill-opacity:1;stroke:none;stroke-width:1px;stroke-linecap:butt;stroke-linejoin:miter;stroke-opacity:1;font-family:Nimbus Roman No9 L" />
  </g>
</svg>
